!!!SOCIAL_FUNCTION:	bird dance songs
!!!PDT:	1956
!!!OTL: No_97_Black_Grass_Dance_Song_(b).krn
!!!LANG: Non-Tone
!!!LING_GROUP: Muskogean
!!!REG: Florida
**kern
*staff1
=1-
*clefF4
*k[f#c#g#d#]
*M3/4
2r
8.r
16B\
=2!|:
(8B\L
8G#\J)
4G#\
8.r
16B\
=3
(8B\L
8G#\J)
(4G#\
8.E\L)
16F#\Jk
=4||
*M3/8
12F#\L
12E\
12BB\J
8E\
=5||
*M2/4
4C#/
8C#/
8r
=6
8.r
16C#/
4C#/
=7
(4G#\
8.E\L)
16F#\Jk
=8||
*M3/8
12F#\L
12E\
12BB\J
8E\
=9||
*M2/4
4C#/
8C#/
16r
16B\
=10:|!
4C#/
8C#/
8r
==
*-
